icons/svg/tourist/bust.svg

<?xml version="1.0" encoding="UTF-8" standalone="no"?>
<!-- Created with Inkscape (http://www.inkscape.org/) -->

<svg
   xmlns:dc="http://purl.org/dc/elements/1.1/"
   xmlns:cc="http://creativecommons.org/ns#"
   xmlns:rdf="http://www.w3.org/1999/02/22-rdf-syntax-ns#"
   xmlns:svg="http://www.w3.org/2000/svg"
   xmlns="http://www.w3.org/2000/svg"
   xmlns:sodipodi="http://sodipodi.sourceforge.net/DTD/sodipodi-0.dtd"
   xmlns:inkscape="http://www.inkscape.org/namespaces/inkscape"
   version="1.0"
   width="580"
   height="580"
   id="svg2"
   sodipodi:version="0.32"
   inkscape:version="0.91 r"
   sodipodi:docname="bust.svg"
   inkscape:output_extension="org.inkscape.output.svg.inkscape">
  <metadata
     id="metadata2975">
    <rdf:RDF>
      <cc:Work
         rdf:about="">
        <dc:format>image/svg+xml</dc:format>
        <dc:type
           rdf:resource="http://purl.org/dc/dcmitype/StillImage" />
        <cc:license
           rdf:resource="http://web.resource.org/cc/PublicDomain" />
        <dc:language>en</dc:language>
        <dc:title></dc:title>
      </cc:Work>
    </rdf:RDF>
  </metadata>
  <sodipodi:namedview
     inkscape:window-height="1004"
     inkscape:window-width="1920"
     inkscape:pageshadow="2"
     inkscape:pageopacity="0.0"
     guidetolerance="10.0"
     gridtolerance="10.0"
     objecttolerance="10.0"
     borderopacity="1.0"
     bordercolor="#666666"
     pagecolor="#ffffff"
     id="base"
     inkscape:zoom="0.65172414"
     inkscape:cx="259.35889"
     inkscape:cy="239.90643"
     inkscape:window-x="1680"
     inkscape:window-y="0"
     inkscape:current-layer="svg2"
     showgrid="false"
     inkscape:window-maximized="1" />
  <defs
     id="defs4">
    <inkscape:perspective
       sodipodi:type="inkscape:persp3d"
       inkscape:vp_x="0 : 290 : 1"
       inkscape:vp_y="0 : 1000 : 0"
       inkscape:vp_z="580 : 290 : 1"
       inkscape:persp3d-origin="290 : 193.33333 : 1"
       id="perspective2441" />
    <inkscape:perspective
       id="perspective3452"
       inkscape:persp3d-origin="30 : 20 : 1"
       inkscape:vp_z="60 : 30 : 1"
       inkscape:vp_y="0 : 1000 : 0"
       inkscape:vp_x="0 : 30 : 1"
       sodipodi:type="inkscape:persp3d" />
    <symbol
       viewBox="244.5 110 489 219.9"
       id="symbol-university">
      <path
         id="path4460"
         d="M79,43l57,119c0,0,21-96,104-96s124,106,124,106l43-133l82-17L0,17L79,43z" />
      <path
         id="path4462"
         d="M94,176l-21,39"
         stroke-width="20"
         stroke="#000000"
         fill="none" />
      <path
         id="path4464"
         d="M300,19c0,10.5-22.6,19-50.5,19S199,29.5,199,19s22.6-19,50.5-19S300,8.5,300,19z" />
      <path
         id="path4466"
         d="M112,216l-16-38L64,88c0,0-9-8-4-35s16-24,16-24"
         stroke-width="20"
         stroke="#000000"
         ill="none" />
    </symbol>
    <inkscape:perspective
       id="perspective4471"
       inkscape:persp3d-origin="372.04724 : 350.78739 : 1"
       inkscape:vp_z="744.09448 : 526.18109 : 1"
       inkscape:vp_y="0 : 1000 : 0"
       inkscape:vp_x="0 : 526.18109 : 1"
       sodipodi:type="inkscape:persp3d" />
    <inkscape:perspective
       id="perspective4668"
       inkscape:persp3d-origin="6 : 4 : 1"
       inkscape:vp_z="12 : 6 : 1"
       inkscape:vp_y="0 : 1000 : 0"
       inkscape:vp_x="0 : 6 : 1"
       sodipodi:type="inkscape:persp3d" />
    <inkscape:perspective
       id="perspective5915"
       inkscape:persp3d-origin="0.5 : 0.33333333 : 1"
       inkscape:vp_z="1 : 0.5 : 1"
       inkscape:vp_y="0 : 1000 : 0"
       inkscape:vp_x="0 : 0.5 : 1"
       sodipodi:type="inkscape:persp3d" />
  </defs>
  <g
     id="g1327">
    <path
       d="M 66.275,1.768 C 24.94,1.768 1.704,23.139 1.704,66.804 L 1.704,516.927 C 1.704,557.771 22.599,579.156 63.896,579.156 L 515.92,579.156 C 557.227,579.156 578.149,558.841 578.149,516.927 L 578.149,66.804 C 578.149,24.203 557.227,1.768 514.628,1.768 C 514.624,1.768 66.133,1.625 66.275,1.768 z"
       style="fill:#111111;stroke:#eeeeee;stroke-width:3.40799999"
       id="path1329" />
  </g>
  <path
     inkscape:connector-curvature="0"
     d="m 292.3675,43.832951 c -2.13075,0.236745 -4.02475,0.827676 -5.91876,1.774685 -3.788,-1.894003 -13.37638,-1.894003 -17.16437,0 -1.894,1.894003 -9.35164,5.56363 -11.24564,11.245624 -7.57599,0 -9.70676,0.236759 -15.38875,5.918755 -3.78801,3.788005 -5.91876,13.021261 -5.91876,13.021261 0,0 -11.00888,5.918754 -14.79689,15.388755 -3.78799,5.682005 0,17.164379 0,17.164379 0,0 -5.80036,5.68201 -7.69437,9.47001 -1.894,1.894 0,9.47 0,9.47 0,0 -1.894,3.788 0,9.47 0,5.68201 5.91876,11.24564 5.91876,11.24564 0,0 -1.89401,5.56363 0,11.24562 0,3.78801 5.32686,7.69438 5.32686,7.69438 0,0 -5.682,13.13965 9.47002,20.71564 0,9.47001 7.45763,17.16439 11.24562,17.16439 -3.78799,9.47 2.01238,16.92763 7.69438,20.71563 0,13.25802 -7.22087,18.82164 -14.79687,20.71565 -5.68201,1.89399 -119.55882,19.17675 -119.55882,43.79877 54.92603,47.35002 75.76003,113.64005 75.76003,113.64005 l 189.40011,0 c 0,0 11.36401,-56.82003 75.76004,-113.64005 0,-18.94002 -115.53407,-43.68041 -123.11007,-45.57441 -7.576,-3.78799 -13.02126,-7.69437 -13.02126,-17.16438 3.78801,-3.788 7.2209,-9.47001 5.32689,-18.94001 3.78799,0 9.82512,-3.66963 13.61313,-11.24563 1.894,-3.788 -0.11364,-11.12725 1.77467,-13.02125 1.894,-1.89401 5.80039,-5.68201 7.69439,-9.47001 1.89399,-5.68201 -0.11364,-9.82514 1.77467,-13.61315 0,-3.78799 3.43289,-5.44525 5.32689,-13.02124 1.894,-9.47 0,-18.94002 0,-18.94002 0,0 4.14312,-9.47 4.14312,-18.94 0,-9.47001 -7.576,-15.152004 -9.47001,-18.940009 0,-3.788006 1.53984,-11.482384 -4.14313,-17.164379 -5.682,-5.682009 -13.02124,-5.326884 -13.02124,-5.326884 0,0 0,-9.70676 -9.47002,-15.388755 -9.47,-5.682008 -18.94001,-3.551261 -18.94001,-3.551261 0,0 -1.89399,-4.024751 -9.46999,-5.918739 -2.84102,0 -4.97177,-0.23676 -7.10251,0 z M 214.23996,422.63315 c 7.57599,11.36402 5.682,47.35002 0,56.82003 l 151.52008,0 c -7.57601,-11.36401 -5.682,-47.35002 0,-56.82003 l -151.52008,0 z m -22.49126,75.76004 c -18.94002,0 -34.32877,15.38876 -34.32877,34.32877 l 0,3.55125 265.16014,0 0,-3.55125 c 0,-18.94001 -15.27038,-34.32877 -36.10439,-34.32877 l -194.72698,0 z"
     id="path4"
     style="fill:#ffffff;fill-opacity:1;stroke:none" />
</svg>

<svg width="580" height="580" viewBox="0 0 580 580" fill="none" xmlns="http://www.w3.org/2000/svg">
<g clip-path="url(#clip0)">
<path d="M66.2751 1.76815C24.9401 1.76815 1.7041 23.1391 1.7041 66.8041V516.927C1.7041 557.771 22.5991 579.156 63.8961 579.156H515.92C557.227 579.156 578.149 558.841 578.149 516.927V66.8041C578.149 24.2031 557.227 1.76815 514.628 1.76815C514.624 1.76815 66.1331 1.62515 66.2751 1.76815Z" fill="#111111" stroke="#EEEEEE" stroke-width="3.408"/>
<path d="M292.368 43.8327C290.237 44.0695 288.343 44.6604 286.449 45.6074C282.661 43.7134 273.072 43.7134 269.284 45.6074C267.39 47.5014 259.933 51.171 258.039 56.853C250.463 56.853 248.332 57.0898 242.65 62.7718C238.862 66.5598 236.731 75.7931 236.731 75.7931C236.731 75.7931 225.722 81.7118 221.934 91.1818C218.146 96.8638 221.934 108.346 221.934 108.346C221.934 108.346 216.134 114.028 214.24 117.816C212.346 119.71 214.24 127.286 214.24 127.286C214.24 127.286 212.346 131.074 214.24 136.756C214.24 142.438 220.159 148.002 220.159 148.002C220.159 148.002 218.265 153.565 220.159 159.247C220.159 163.035 225.486 166.942 225.486 166.942C225.486 166.942 219.804 180.081 234.956 187.657C234.956 197.127 242.413 204.822 246.201 204.822C242.413 214.292 248.214 221.749 253.896 225.537C253.896 238.796 246.675 244.359 239.099 246.253C233.417 248.147 119.54 265.43 119.54 290.052C174.466 337.402 195.3 403.692 195.3 403.692H384.7C384.7 403.692 396.064 346.872 460.46 290.052C460.46 271.112 344.926 246.372 337.35 244.478C329.774 240.69 324.329 236.783 324.329 227.313C328.117 223.525 331.55 217.843 329.656 208.373C333.444 208.373 339.481 204.703 343.269 197.127C345.163 193.339 343.155 186 345.044 184.106C346.938 182.212 350.844 178.424 352.738 174.636C354.632 168.954 352.624 164.811 354.513 161.023C354.513 157.235 357.946 155.578 359.84 148.002C361.734 138.532 359.84 129.062 359.84 129.062C359.84 129.062 363.983 119.592 363.983 110.122C363.983 100.652 356.407 94.9698 354.513 91.1818C354.513 87.3938 356.052 79.6994 350.37 74.0174C344.688 68.3354 337.348 68.6905 337.348 68.6905C337.348 68.6905 337.348 58.9838 327.878 53.3018C318.408 47.6198 308.938 49.7505 308.938 49.7505C308.938 49.7505 307.044 45.7258 299.468 43.8318C296.627 43.8318 294.496 43.595 292.366 43.8318L292.368 43.8327ZM214.24 422.633C221.816 433.997 219.922 469.983 214.24 479.453H365.76C358.184 468.089 360.078 432.103 365.76 422.633H214.24ZM191.749 498.393C172.809 498.393 157.42 513.782 157.42 532.722V536.273H422.58V532.722C422.58 513.782 407.31 498.393 386.476 498.393H191.749V498.393Z" fill="white"/>
</g>
<defs>
<clipPath id="clip0">
<path d="M0 0H580V580H0V0Z" fill="white"/>
</clipPath>
</defs>
</svg>
